X:1
T:BWV1068
T:Gavotte I and II
T:J. S. Bach
%%score { ( 1 3 ) | 2 } { ( 4 5 ) | 6 } { ( 7 8 9 ) | 10 }
L:1/8
Q:1/4=184
M:4/4
K:D
V:1 treble nm="Harpsichord 1"
V:3 treble 
V:2 bass 
V:4 treble nm="Harpsichord 2"
V:5 treble 
V:6 bass 
V:7 treble nm="Harpsichord 3"
V:8 treble 
V:9 treble 
V:10 bass 
V:1
"^Presto" A2 af | g4 A2 ge | f4 A2 ec | d2 cB AB G2 | G/4F/4G/4F/4G/4F/4G/4F/4 ED A2 af | %5
 g4 A2 ge | f4 ^g2 bg | a2 ^gf ef d2 | c2 fd e2 dc | Bc A2 E2 ^G2 | A4 A2 af | g4 A2 ge | %12
 f4 A2 ec | d2 cB AB G2 | G/4F/4G/4F/4G/4F/4G/4F/4 ED A2 af | g4 A2 ge | f4 ^g2 bg | a2 ^gf ef d2 | %18
 c2 fd e2 dc | Bc A2 E2 ^G2 | A4 e2 EG | F4 d2 FA | G4 c2 ^Ac | B2 cd cB g2 | %24
 a/4g/4a/4g/4a/4g/4a/4g/4 g2 F2 fd | e4 F2 ec | d2 Bd c^A B2 | f2 gf edcd | B4 B2 bg | a4 B2 af | %30
 g4 c2 ge | f2 ed ec d2 | d/4c/4d/4c/4d/4c/4d/4c/4 BA a2 A=c | B4 g2 Bd | c2 ec A2 ge | %35
 fede A2 c2 | d4 e2 EG | F4 d2 FA | G4 c2 ^Ac | B2 cd cB g2 | a/4g/4a/4g/4a/4g/4a/4g/4 g2 F2 fd | %41
 e4 F2 ec | d2 Bd c^A B2 | f2 gf edcd | B4 B2 bg | a4 B2 af | g4 c2 ge | f2 ed ec d2 | %48
 d/4c/4d/4c/4d/4c/4d/4c/4 BA a2 A=c | B4 g2 Bd | c2 ec A2 ge | fede A2 c2 | d4 dc d2 | %53
 FE F2 AG A2 | D4 defd | e2 e2 efge | f2 d2 dc d2 | FE F2 AG A2 | D4 fedc | B2 B2 BcdB | %60
 e2 ^GE edcB | A2 A2 ABcA | d2 FD dc d2 | ^GF G2 BA B2 | ^g4 BABd | cBce ^dcdf | ba^gf e2 a2 | %67
 e2 a2 d/4c/4d/4c/4d/4c/4d/4c/4 Bc | A4 dc d2 | FE F2 AG A2 | D4 defd | e2 e2 efge | f2 d2 dc d2 | %73
 FE F2 AG A2 | D4 fedc | B2 B2 BcdB | e2 ^GE edcB | A2 A2 ABcA | d2 FD dc d2 | ^GF G2 BA B2 | %80
 ^g4 BABd | cBce ^dcdf | ba^gf e2 a2 | e2 a2 d/4c/4d/4c/4d/4c/4d/4c/4 Bc | A4 z4 | z8 | z4 g2 f2- | %87
 f2 e4 e/4d/4e/4d/4e/4d/4e/4d/4 | e/4d/4e/4d/4e/4d/4e/4d/4 c2 dcdf | fefb- bg a2 | a4 gfeg | %91
 f2 B2 c2 ^A2 | B4 FEFG | AGAB =cBcd | =cBcf cBca | BABa gfed | c2 A2 fedc | B2 B2 BcdB | %98
 edcB A2 d2 | A2 d2 G/4F/4G/4F/4G/4F/4G/4F/4 EF | D4 z4 | z8 | z4 g2 f2- | %103
 f2 e4 e/4d/4e/4d/4e/4d/4e/4d/4 | e/4d/4e/4d/4e/4d/4e/4d/4 c2 dcdf | fefb- bg a2 | a4 gfeg | %107
 f2 B2 c2 ^A2 | B4 FEFG | AGAB =cBcd | =cBcf cBca | BABa gfed | c2 A2 fedc | B2 B2 BcdB | %114
 edcB A2 d2 | A2 d2 z4 | z8 | z8 | z8 | z8 | z8 | z8 | z8 | z8 | z8 | z8 | z8 | z8 | z8 | z8 | z8 | %131
 z8 | z8 | z8 | z8 | z8 | z8 | z8 | z8 | z8 | z8 | z8 | z4 z4 |] %143
V:2
 D,2 D,2 | A,4 A,2 A,2 | A,4 A,2 C,2 | F,2 E,2 F,2 E,2 | D,4 D,2 D,2 | A,4 A,2 A,2 | A,4 B,2 ^G,2 | %7
 E,2 E,2 E,2 E,2 | E,2 D,2 A,,2 A,,2 | D,2 D,2 C,2 B,,2 | C,4 D,2 D,2 | A,4 A,2 A,2 | A,4 A,2 C,2 | %13
 F,2 E,2 F,2 E,2 | D,4 D,2 D,2 | A,4 A,2 A,2 | A,4 B,2 ^G,2 | E,2 E,2 E,2 E,2 | E,2 D,2 A,,2 A,,2 | %19
 D,2 D,2 C,2 B,,2 | C,4 C,2 A,,2 | A,,2 B,,C, D,2 B,,2 | B,,4 E,2 E,2 | D,2 F,2 E,2 D,2 | %24
 C,4 B,,2 B,,2 | B,,2 ^A,,C, F,2 F,2 | F,2 G,2 G,2 F,E, | D,2 C,2 C,2 F,2 | D,4 D,2 G,2 | %29
 E,2 ^D,E, F,2 D,2 | B,,4 A,,2 A,,2 | A,2 B,2 E,2 E,2 | E,4 F,2 D,2 | D,4 B,,2 E,2 | E,4 E,2 A,2 | %35
 A,G,F,G, E,2 E,2 | F,4 C,2 A,,2 | A,,2 B,,C, D,2 B,,2 | B,,4 E,2 E,2 | D,2 F,2 E,2 D,2 | %40
 C,4 B,,2 B,,2 | B,,2 ^A,,C, F,2 F,2 | F,2 G,2 G,2 F,E, | D,2 C,2 C,2 F,2 | D,4 D,2 G,2 | %45
 E,2 ^D,E, F,2 D,2 | B,,4 A,,2 A,,2 | A,2 B,2 E,2 E,2 | E,4 F,2 D,2 | D,4 B,,2 E,2 | E,4 E,2 A,2 | %51
 A,G,F,G, E,2 E,2 | F,4 DC D2 | F,E, F,2 A,G, A,2 | D,2 E,2 F,2 D,2 | G,2 E,2 A,2 A,,2 | %56
 D,2 F,2 DC D2 | F,E, F,2 A,G, A,2 | D,E,F,E, D,C,B,,A,, | ^G,,2 B,A, ^G,F,E,D, | %60
 C,D,E,D, C,B,,A,,^G,, | F,,2 A,^G, F,E,D,C, | B,,C,D,B,, DC D2 | ^G,F, G,2 B,A, B,2 | %64
 B,4 E,2 E,2 | E,2 E,2 F,2 F,2 | ^G,A, B,2 C2 A,2 | A,2 E,2 E,2 D,E, | C,4 DC D2 | %69
 F,E, F,2 A,G, A,2 | D,2 E,2 F,2 D,2 | G,2 E,2 A,2 A,,2 | D,2 F,2 DC D2 | F,E, F,2 A,G, A,2 | %74
 D,E,F,E, D,C,B,,A,, | ^G,,2 B,A, ^G,F,E,D, | C,D,E,D, C,B,,A,,^G,, | F,,2 A,^G, F,E,D,C, | %78
 B,,C,D,B,, DC D2 | ^G,F, G,2 B,A, B,2 | B,4 E,2 E,2 | E,2 E,2 F,2 F,2 | ^G,A, B,2 C2 A,2 | %83
 A,2 E,2 E,2 D,E, | C,4 A,^G, A,2 | C,B,, C,2 E,D, E,2 | A,,4 ^A,^G, A,2 | B,^A, B,2 E,D, E,2 | %88
 F,2 F,,2 F,4- | F,8- | F,4 E,2 C,2 | D,2 G,,2 E,,2 F,,2 | B,,4 A,,4- | A,,4 F,,4- | F,,4 F,2 D,2 | %95
 G,2 E,2 C,2 D,2 | A,,2 B,,C, D,C,B,,A,, | G,,2 D,2 E,2 B,,2 | C,B,,A,,G,, A,,2 F,,2 | %99
 D,,2 A,,2 A,,2 G,,A,, | F,,4 A,^G, A,2 | C,B,, C,2 E,D, E,2 | A,,4 ^A,^G, A,2 | %103
 B,^A, B,2 E,D, E,2 | F,2 F,,2 F,4- | F,8- | F,4 E,2 C,2 | D,2 G,,2 E,,2 F,,2 | B,,4 A,,4- | %109
 A,,4 F,,4- | F,,4 F,2 D,2 | G,2 E,2 C,2 D,2 | A,,2 B,,C, D,C,B,,A,, | G,,2 D,2 E,2 B,,2 | %114
 C,B,,A,,G,, A,,2 F,,2 | D,,2 A,,2 A,,2 G,,A,, | F,,4 D,2 D,2 | A,4 A,2 A,2 | A,4 A,2 C,2 | %119
 F,2 E,2 F,2 E,2 | D,4 D,2 D,2 | A,4 A,2 A,2 | A,4 B,2 ^G,2 | E,2 E,2 E,2 E,2 | E,2 D,2 A,,2 A,,2 | %125
 D,2 D,2 C,2 B,,2 | C,4 C,2 A,,2 | A,,2 B,,C, D,2 B,,2 | B,,4 E,2 E,2 | D,2 F,2 E,2 D,2 | %130
 C,4 B,,2 B,,2 | B,,2 ^A,,C, F,2 F,2 | F,2 G,2 G,2 F,E, | D,2 C,2 C,2 F,2 | D,4 D,2 G,2 | %135
 E,2 ^D,E, F,2 D,2 | B,,4 A,,2 A,,2 | A,2 B,2 E,2 E,2 | E,4 F,2 D,2 | D,4 B,,2 E,2 | E,4 E,2 A,2 | %141
 A,G,F,G, E,2 E,2 | F,4 z4 |] %143
V:3
 x4 | x8 | x8 | x8 | x8 | x8 | x8 | x8 | x8 | x8 | x8 | x8 | x8 | x8 | x8 | x8 | x8 | x8 | x8 | %19
 x8 | x8 | x8 | x8 | x8 | x8 | x8 | x8 | x8 | x8 | x8 | x8 | x8 | x8 | x8 | x8 | x8 | x8 | x8 | %38
 x8 | x8 | x8 | x8 | x8 | x8 | x8 | x8 | x8 | x8 | x8 | x8 | x8 | x8 | x8 | x8 | D4 A2 d2- | %55
 d2 cB cdec | x8 | x8 | x8 | BAGF E2 E2 | EF E2 A4- | AGFE D2 D2 | DE D2 z4 | x8 | d4 ^G2 G2 | %65
 A2 A2 F2 F2 | ^GA B2 c2 e2 | A2 A2 A2 ^G2 | x8 | x8 | z4 A2 d2- | d2 cB cdec | x8 | x8 | x8 | %75
 BA^GF E2 E2 | EF E2 A4- | AGFE D2 D2 | DE D2 z4 | x8 | d4 ^G2 G2 | A2 A2 F2 F2 | ^GA B2 c2 e2 | %83
 A2 A2 A2 ^G2 | x8 | x8 | z4 e2 d2 | d2 c4 c/4B/4c/4B/4c/4B/4c/4B/4 | %88
 c/4B/4c/4B/4c/4B/4c/4B/4 A2 B4- | B4 c4 | ^d4 e2 ^A2 | B2 D2 G2 F2 | D4 D4- | D8- | D4 A2 A2- | %95
 A2 GF E2 A2 | AGFE D2 D2 | DEFD G2 G2 | G4 F2 A2 | A2 F2 z4 | x8 | x8 | z4 e2 d2- | %103
 d2 c4 c/4B/4c/4B/4c/4B/4c/4B/4 | c/4B/4c/4B/4c/4B/4c/4B/4 A2 B4- | B4 c4 | ^d4 e2 A2 | %107
 B2 D2 G2 F2 | D4 D4- | D8- | D4 A2 A2- | A2 GF E2 A2 | AGFE D2 D2 | DEFD G2 G2 | G4 F2 A2 | %115
 A2 F2 z4 | x8 | x8 | x8 | x8 | x8 | x8 | x8 | x8 | x8 | x8 | x8 | x8 | x8 | x8 | x8 | x8 | x8 | %133
 x8 | x8 | x8 | x8 | x8 | x8 | x8 | x8 | x8 | x8 |] %143
V:4
 A2 af | g4 A2 ge | f4 A2 ec | d2 cB AB G2 | G/4F/4G/4F/4G/4F/4G/4F/4 ED A2 af | g4 A2 ge | %6
 f4 ^g2 bg | a2 ^gf ef d2 | c2 fd e2 dc | Bc A2 E2 ^G2 | A4 A2 af | g4 A2 ge | f4 A2 ec | %13
 d2 cB AB G2 | G/4F/4G/4F/4G/4F/4G/4F/4 ED A2 af | g4 A2 ge | f4 ^g2 bg | a2 ^gf ef d2 | %18
 c2 fd e2 dc | Bc A2 E2 ^G2 | A4 e2 e2 | e2 FE d2 f2 | f2 GF c2 ^Ac | B2 cd cB g2 | %24
 a/4g/4a/4g/4a/4g/4a/4g/4 g2 F2 fd | e4 c2 ec | d2 Bd c^A B2 | f2 gf edcd | B4 B2 bg | a4 =B2 af | %30
 g4 c2 ge | f2 ed ec d2 | d/4c/4d/4c/4d/4c/4d/4c/4 BA a2 a2 | g2 GF g2 Bd | c2 ec e2 ge | %35
 fede A2 c2 | d4 e2 e2 | e2 FE d2 f2 | f2 GF c2 ^Ac | B2 cd cB g2 | %40
 a/4g/4a/4g/4a/4g/4a/4g/4 g2 F2 fd | e4 c2 ec | d2 Bd c^A B2 | f2 gf edcd | B4 B2 bg | a4 =B2 af | %46
 g4 c2 ge | f2 ed ec d2 | d/4c/4d/4c/4d/4c/4d/4c/4 BA a2 a2 | g2 GF g2 Bd | c2 ec e2 ge | %51
 fede A2 c2 | d4 dc d2 | FE F2 AG A2 | D4 defd | e2 e2 efge | f2 d2 dc d2 | FE F2 AG A2 | D4 fedc | %59
 B2 B2 BcdB | e2 ^GE edcB | A2 A2 ABcA | d2 FD dc d2 | ^GF G2 BA B2 | ^g4 BABd | cBce ^dcdf | %66
 ba^gf e2 a2 | e2 a2 d/4c/4d/4c/4d/4c/4d/4c/4 Bc | A4 dc d2 | FE F2 AG A2 | D4 defd | e2 e2 efge | %72
 f2 d2 dc d2 | FE F2 AG A2 | D4 fedc | B2 B2 BcdB | e2 ^GE edcB | A2 A2 ABcA | d2 FD dc d2 | %79
 ^GF G2 BA B2 | ^g4 BABd | cBce ^dcdf | ba^gf e2 a2 | e2 a2 d/4c/4d/4c/4d/4c/4d/4c/4 Bc | %84
 A4 A^G A2 | CB, C2 ED E2 | A,4 g2 f2- | f2 e4 e/4d/4e/4d/4e/4d/4e/4d/4 | %88
 e/4d/4e/4d/4e/4d/4e/4d/4 c2 dcdf | fefb bg a2 | a4 gfeg | f2 B2 c2 ^A2 | B4 FEFG | AGAB =cBcd | %94
 =cBcf cBca | BABa gfed | c2 A2 fedc | B2 B2 BcdB | edcB A2 d2 | %99
 A2 d2 G/4F/4G/4F/4G/4F/4G/4F/4 EF | D4 A^G A2 | CB, C2 ED E2 | A,4 g2 f2- | %103
 f2 e4 e/4d/4e/4d/4e/4d/4e/4d/4 | e/4d/4e/4d/4e/4d/4e/4d/4 c2 dcdf | fefb bg a2 | a4 gfeg | %107
 f2 B2 c2 ^A2 | B4 FEFG | AGAB =cBcd | =cBcf cBca | BABa gfed | c2 A2 fedc | B2 B2 BcdB | %114
 edcB A2 d2 | A2 d2 G/4F/4G/4F/4G/4F/4G/4F/4 EF | D4 A2 af | g4 A2 ge | f4 A2 ec | d2 cB AB G2 | %120
 G/4F/4G/4F/4G/4F/4G/4F/4 ED A2 af | g4 A2 ge | f4 ^g2 bg | a2 ^gf ef d2 | c2 fd e2 dc | %125
 Bc A2 E2 ^G2 | A4 e2 e2 | e2 FE d2 f2 | f2 GF c2 ^Ac | B2 cd cB g2 | %130
 a/4g/4a/4g/4a/4g/4a/4g/4 g2 F2 fd | e4 c2 ec | d2 Bd c^A B2 | f2 gf edcd | B4 B2 bg | a4 =B2 af | %136
 g4 c2 ge | f2 ed ec d2 | d/4c/4d/4c/4d/4c/4d/4c/4 BA a2 a2 | g2 GF g2 Bd | c2 ec e2 ge | %141
 fede A2 c2 | d4 z4 |] %143
V:5
 F2 fd | e4 E2 ec | d4 D2 E2 | A,2 D2 D2 C2 | A,4 F2 fd | e4 E2 ec | d4 d2 B2 | e2 dc B2 ^G2 | %8
 A2 A2 A2 A2 | F2 F2 E2 E2 | E4 F2 fd | e4 E2 ec | d4 D2 E2 | A,2 D2 D2 C2 | A,4 F2 fd | e4 E2 ec | %16
 d4 d2 B2 | e2 dc B2 ^G2 | A2 A2 A2 A2 | F2 F2 E2 E2 | E4 E2 EG | F4 F2 FA | G4 G2 F2 | %23
 B2 ^A2 B2 B2 | B2 ^A2 D2 d2 | d2 cB F2 ^A2 | B2 D2 E2 FG | F2 B2 B2 ^A2 | F4 G2 dB | ^B4 F2 f^d | %30
 e4 E2 e2 | d2 F2 B2 B2 | A4 A2 A=c | B4 G2 E2 | A4 A2 c2 | d2 B2 A2 A2 | A4 E2 EG | F4 F2 FA | %38
 G4 G2 F2 | B2 ^A2 B2 B2 | B2 ^A2 D2 d2 | d2 cB F2 ^A2 | B2 D2 E2 FG | F2 B2 B2 ^A2 | F4 x4 | %45
 ^B4 F2 f^d | e4 E2 e2 | d2 F2 B2 B2 | A4 A2 A=c | B4 G2 E2 | A4 A2 c2 | x8 | A4 z4 | x8 | %54
 D4 A2 d2- | d2 cB cdec | d2 A2 z4 | x8 | x8 | BA^GF E2 E2 | EF E2 A2 A,2 | A^GFE D2 D2 | %62
 DE D2 z4 | x8 | d4 ^G2 G2 | A2 A2 A2 A2 | Bc d2 c2 e2 | c2 A2 B/4A/4B/4A/4B/4A/4B/4A/4 ^GA | %68
 E4 z4 | x8 | D4 A2 d2- | d2 cB cdec | d2 A2 z4 | x8 | x8 | BA^GF E2 E2 | EF E2 A2 A,2 | %77
 A^GFE D2 D2 | DE D2 z4 | x8 | d4 ^G2 G2 | A2 A2 A2 A2 | Bc d2 c2 e2 | %83
 c2 A2 B/4A/4B/4A/4B/4A/4B/4A/4 ^GA | E4 x4 | x8 | A,4 e2 d2- | d2 c4 c/4B/4c/4B/4c/4B/4c/4B/4 | %88
 c/4B/4c/4B/4c/4B/4c/4B/4 ^A2 B4- | B4 c4 | ^d4 e2 ^A2 | B2 D2 G2 F2 | D4 D4- | D8- | D4 A2 A2 | %95
 A2 GF E2 A2 | AGFE D2 D2 | DEFD G2 G2 | G4 F2 A2 | F2 D2 z2 CD | A,4 z4 | x8 | A,4 e2 d2- | %103
 d2 c4 c/4B/4c/4B/4c/4B/4c/4B/4 | c/4B/4c/4B/4c/4B/4c/4B/4 ^A2 B4- | B4 c4 | ^d4 e2 ^A2 | %107
 B2 D2 G2 F2 | D4 D4- | D8- | D4 A2 A2 | A2 GF E2 A2 | AGFE D2 D2 | DEFD G2 G2 | G4 F2 A2 | %115
 F2 D2 z2 CD | A,4 F2 fd | e4 E2 ec | d4 D2 E2 | A,2 D2 D2 C2 | A,4 F2 fd | e4 E2 ec | d4 d2 B2 | %123
 e2 dc B2 ^G2 | A2 A2 A2 A2 | F2 F2 E2 E2 | E4 E2 EG | F4 F2 FA | G4 G2 F2 | B2 ^A2 B2 B2 | %130
 B2 ^A2 D2 d2 | d2 cB F2 ^A2 | B2 D2 E2 FG | F2 B2 B2 ^A2 | F4 G2 dB | ^B4 F2 f^d | e4 E2 e2 | %137
 d2 F2 B2 B2 | A4 A2 A=c | B4 G2 E2 | A4 A2 c2 | d2 B2 A2 A2 | A4 z4 |] %143
V:6
 D4- | D2 CB, C2 A,2 | D2 D,E, F,2 G,E, | F,2 G,2 A,2 A,,2 | D,2 F,A, D4- | D2 CB, C2 A,2 | %6
 D2 C2 B,2 E2 | C2 B,A, ^G,2 E,2 | A,2 D,2 C,2 F,2 | D,2 B,,2 E,2 E,,2 | A,,4 D4- | D2 CB, C2 A,2 | %12
 D2 D,E, F,2 G,E, | F,2 G,2 A,2 A,,2 | D,2 F,A, D4- | D2 CB, C2 A,2 | D2 C2 B,2 E2 | %17
 C2 B,A, ^G,2 E,2 | A,2 D,2 C,2 F,2 | D,2 B,,2 E,2 E,,2 | A,,4 A,,2 C,2 | D,2 C,2 B,,2 D,2 | %22
 E,2 D,2 E,2 F,2 | G,2 F,2 G,2 E,2 | F,2 ^G,^A, B,2 =A,2 | ^G,2 C2 ^A,2 F,2 | B,2 G,2 E,2 D,C, | %27
 D,2 E,2 F,2 F,,2 | B,,2 A,F, G,4- | G,2 F,E, ^D,2 B,,2 | E,2 F,G, A,2 C,2 | D,2 B,,2 G,,2 ^G,,2 | %32
 A,,2 B,,C, D,E, F,2- | F,2 E,D, E,F, G,2- | G,2 E,2 C,2 A,,2 | D,2 G,2 A,2 A,,2 | D,4 A,,2 C,2 | %37
 D,2 C,2 B,,2 D,2 | E,2 D,2 E,2 F,2 | G,2 F,2 G,2 E,2 | F,2 ^G,^A, B,2 =A,2 | ^G,2 C2 ^A,2 F,2 | %42
 B,2 G,2 E,2 D,C, | D,2 E,2 F,2 F,,2 | B,,2 A,F, G,4- | G,2 F,E, ^D,2 B,,2 | E,2 F,G, A,2 C,2 | %47
 D,2 B,,2 G,,2 ^G,,2 | A,,2 B,,C, D,E, F,2- | F,2 E,D, E,F, G,2- | G,2 E,2 C,2 A,,2 | %51
 D,2 G,2 A,2 A,,2 | D,4 DC D2 | F,E, F,2 A,G, A,2 | D,4 z4 | z8 | z4 DC D2 | F,E, F,2 A,G, A,2 | %58
 D,4 z4 | z8 | z8 | z8 | z4 DCD z | ^G,F, G,2 B,A, B,2 | E,8- | E,8- | E,4 A,^G, A,2 | %67
 C,B,, C,2 E,D, E,2 | A,,4 DC D2 | F,E, F,2 A,G, A,2 | D,4 z4 | z8 | z4 DC D2 | F,E, F,2 A,G, A,2 | %74
 D,4 z4 | z8 | z8 | z8 | z4 DCD z | ^G,F, G,2 B,A, B,2 | E,8- | E,8- | E,4 A,^G, A,2 | %83
 C,B,, C,2 E,D, E,2 | A,,4 A,^G, A,2 | C,B,, C,2 E,D, E,2 | A,,4 z4 | z8 | z4 B,^A, B,2 | %89
 D,C, D,2 F,E, F,2 | B,,4 z4 | z8 | z4 D,C, D,2 | F,,E,, F,,2 A,,G,, A,,2 | D,,4 z4 | z8 | z8 | %97
 z8 | z4 D,C, D,2 | F,,E,, F,,2 A,,G,, A,,2 | D,,4 A,^G, A,2 | C,B,, C,2 E,D, E,2 | A,,4 z4 | z8 | %104
 z4 B,^A, B,2 | D,C, D,2 F,E, F,2 | B,,4 z4 | z8 | z4 D,C, D,2 | F,,E,, F,,2 A,,G,, A,,2 | %110
 D,,4 z4 | z8 | z8 | z8 | z4 D,C, D,2 | F,,E,, F,,2 A,,G,, A,,2 | D,,4 D4- | D2 CB, C2 A,2 | %118
 D2 D,E, F,2 G,E, | F,2 G,2 A,2 A,,2 | D,2 F,A, D4- | D2 CB, C2 A,2 | D2 C2 B,2 E2 | %123
 C2 B,A, ^G,2 E,2 | A,2 D,2 C,2 F,2 | D,2 B,,2 E,2 E,,2 | A,,4 A,,2 C,2 | D,2 C,2 B,,2 D,2 | %128
 E,2 D,2 E,2 F,2 | G,2 F,2 G,2 E,2 | F,2 ^G,^A, B,2 =A,2 | ^G,2 C2 ^A,2 F,2 | B,2 G,2 E,2 D,C, | %133
 D,2 E,2 F,2 F,,2 | B,,2 A,F, G,4- | G,2 F,E, ^D,2 B,,2 | E,2 F,G, A,2 C,2 | D,2 B,,2 G,,2 ^G,,2 | %138
 A,,2 B,,C, D,E, F,2- | F,2 E,D, E,F, G,2- | G,2 E,2 C,2 A,,2 | D,2 G,2 A,2 A,,2 | D,4 z4 |] %143
V:7
 A2 af | g4 A2 ge | f4 z4 | z8 | z4 A2 af | g4 A2 ge | f4 z4 | z8 | z8 | z8 | z4 A2 af | g4 A2 ge | %12
 f4 z4 | z8 | z4 A2 af | g4 A2 ge | f4 z4 | z8 | z8 | z8 | z8 | z8 | z8 | z8 | z4 F2 fd | %25
 e4 F2 ef | d4 z4 | z8 | z8 | z8 | z4 e2 ge | f2 ed b2 z2 | a4 z4 | z8 | z4 e2 ge | fede f3 d | %36
 d4 z4 | z8 | z8 | z8 | z4 F2 fd | e4 F2 ef | d4 z4 | z8 | z8 | z8 | z4 e2 ge | f2 ed b2 z2 | %48
 a4 z4 | z8 | z4 e2 ge | fede f3 d | d4 d2 d2 | F2 F2 A2 A2 | D4 z4 | z8 | z4 d2 d2 | F2 F2 A2 A2 | %58
 D4 z4 | z8 | z8 | z8 | z4 d3 A | d3 e dede | d4 z4 | z8 | z4 e2 e2 | a2 a2 e2 e2 | A4 d2 d2 | %69
 F2 F2 A2 A2 | D4 z4 | z8 | z4 d2 d2 | F2 F2 A2 A2 | D4 z4 | z8 | z8 | z8 | z4 d3 A | d3 e dede | %80
 d4 z4 | z8 | z4 e2 e2 | a2 a2 e2 e2 | A4 e3 a | e3 f efef | %86
 f/4e/4f/4e/4f/4e/4f/4e/4 f/4e/4f/4e/4f/4e/4f/4e/4 z4 | z8 | z4 f3 b | f3 g fgfg | f4 z4 | z8 | %92
 z4 A2 d2 | d2 f2 f2 a2 | a4 z4 | z8 | z8 | z8 | z4 d2 d2 | F2 F2 A2 A2 | D4 e3 a | e3 f efef | %102
 f/4e/4f/4e/4f/4e/4f/4e/4 f/4e/4f/4e/4f/4e/4f/4e/4 z4 | z8 | z4 f3 b | f3 g fgfg | f4 z4 | z8 | %108
 z4 A2 d2 | d2 f2 f2 a2 | a4 z4 | z8 | z8 | z8 | z4 d2 d2 | F2 F2 A2 A2 | D4 A2 af | g4 A2 ge | %118
 f4 z4 | z8 | z4 A2 af | g4 A2 ge | f4 z4 | z8 | z8 | z8 | z8 | z8 | z8 | z8 | z4 F2 fd | %131
 e4 F2 ef | d4 z4 | z8 | z8 | z8 | z4 e2 ge | f2 ed b2 z2 | a4 z4 | z8 | z4 e2 ge | fede f3 d | %142
 d4 z4 |] %143
V:8
 A2 fd | e4 A2 eA | A4 z4 | x8 | x4 A2 fd | e4 A2 eA | A4 z4 | x8 | x8 | x8 | x4 A2 fd | e4 A2 eA | %12
 A4 z4 | x8 | x4 A2 fd | e4 A2 eA | A4 z4 | x8 | x8 | x8 | x8 | x8 | x8 | x8 | x8 | x8 | x8 | x8 | %28
 x8 | x8 | z4 A2 e2 | d2 z2 efef | e2 A2 z4 | x8 | z4 A2 e2 | d2 d2 cF A2 | A4 z4 | x8 | x8 | x8 | %40
 x8 | x8 | x8 | x8 | x8 | x8 | z4 A2 e2 | d2 z2 efef | e2 A2 z4 | x8 | z4 A2 e2 | d2 d2 cF A2 | %52
 x8 | x8 | x8 | x8 | x8 | x8 | x8 | x8 | x8 | x8 | x8 | x8 | x8 | x8 | x8 | x8 | x8 | x8 | x8 | %71
 x8 | x8 | x8 | x8 | x8 | x8 | x8 | x8 | x8 | x8 | x8 | x8 | x8 | x8 | x8 | x8 | x8 | x8 | x8 | %90
 x8 | x8 | z4 F2 A2 | A2 d2 d2 f2 | f4 z4 | x8 | x8 | x8 | x8 | x8 | x8 | x8 | x8 | x8 | x8 | x8 | %106
 x8 | x8 | z4 F2 A2 | A2 d2 d2 f2 | f4 z4 | x8 | x8 | x8 | x8 | x8 | D4 A2 fd | e4 A2 eA | A4 z4 | %119
 x8 | x4 A2 fd | e4 A2 eA | A4 z4 | x8 | x8 | x8 | x8 | x8 | x8 | x8 | x8 | x8 | x8 | x8 | x8 | %135
 x8 | z4 A2 e2 | d2 z2 efef | e2 A2 z4 | x8 | z4 A2 e2 | d2 d2 cF A2 | F4 z4 |] %143
V:9
 D2 D2 | A4 z4 | D4 z4 | x8 | x4 D2 D2 | A4 z4 | D4 z4 | x8 | x8 | x8 | x4 D2 D2 | A4 z4 | D4 z4 | %13
 x8 | x4 D2 D2 | A4 z4 | D4 x4 | x8 | x8 | x8 | x8 | x8 | x8 | x8 | x8 | x8 | x8 | x8 | x8 | x8 | %30
 z6 A2 | A2 z2 d2 z2 | A4 z4 | x8 | z6 A2 | A2 FD A2 z A | x8 | x8 | x8 | x8 | x8 | x8 | x8 | x8 | %44
 x8 | x8 | x6 A2 | A2 z2 d2 z2 | A4 z4 | x8 | z6 A2 | A2 FD A2 z A | A4 x4 | x8 | x8 | x8 | x8 | %57
 x8 | x8 | x8 | x8 | x8 | x8 | x8 | x8 | x8 | x8 | x8 | x8 | x8 | x8 | x8 | x8 | x8 | x8 | x8 | %76
 x8 | x8 | x8 | x8 | x8 | x8 | x8 | x8 | x8 | x8 | x8 | x8 | x8 | x8 | x8 | x8 | z4 D2 F2 | %93
 F2 A2 A2 d2 | d4 z4 | x8 | x8 | x8 | x8 | x8 | x8 | x8 | x8 | x8 | x8 | x8 | x8 | x8 | z4 D2 F2 | %109
 F2 A2 A2 d2 | d4 z4 | x8 | x8 | x8 | x8 | x8 | x4 D2 D2 | A4 z4 | D4 z4 | x8 | x4 D2 D2 | A4 z4 | %122
 D4 x4 | x8 | x8 | x8 | x8 | x8 | x8 | x8 | x8 | x8 | x8 | x8 | x8 | x8 | z6 A2 | A2 z2 d2 z2 | %138
 A4 z4 | x8 | z6 A2 | A2 FD A2 z A | A4 x4 |] %143
V:10
 D,2 D,2 | A,,4 A,,2 A,,2 | D,4 z4 | z8 | z4 D,2 D,2 | A,,4 A,,2 A,,2 | D,4 z4 | z8 | z8 | z8 | %10
 z4 D,2 D,2 | A,,4 A,,2 A,,2 | D,4 z4 | z8 | z4 D,2 D,2 | A,,4 A,,2 A,,2 | D,4 z4 | z8 | z8 | z8 | %20
 z8 | z8 | z8 | z8 | z8 | z8 | z8 | z8 | z8 | z8 | z4 A,,2 A,,2 | D,2 z2 D,2 z2 | A,,4 z4 | z8 | %34
 z4 A,,2 A,,2 | D,2 z2 A,,2 A,,2 | D,4 z4 | z8 | z8 | z8 | z8 | z8 | z8 | z8 | z8 | z8 | %46
 z4 A,,2 A,,2 | D,2 z2 D,2 z2 | A,,4 z4 | z8 | z4 A,,2 A,,2 | D,2 z2 A,,2 A,,2 | D,4 z4 | z8 | z8 | %55
 z8 | z8 | z8 | z8 | z8 | z8 | z8 | z8 | z8 | z8 | z8 | z8 | z8 | z4 z4 | z8 | z8 | z8 | z8 | z8 | %74
 z8 | z8 | z8 | z8 | z8 | z8 | z8 | z8 | z8 | z8 | z4 z4 | z8 | z8 | z8 | z8 | z8 | z8 | z8 | z8 | %93
 z8 | z8 | z8 | z8 | z8 | z8 | z8 | z4 z4 | z8 | z8 | z8 | z8 | z8 | z8 | z8 | z8 | z8 | z8 | z8 | %112
 z8 | z8 | z8 | z8 | z4 D,2 D,2 | A,,4 A,,2 A,,2 | D,4 z4 | z8 | z4 D,2 D,2 | A,,4 A,,2 A,,2 | %122
 D,4 z4 | z8 | z8 | z8 | z8 | z8 | z8 | z8 | z8 | z8 | z8 | z8 | z8 | z8 | z4 A,,2 A,,2 | %137
 D,2 z2 D,2 z2 | A,,4 z4 | z8 | z4 A,,2 A,,2 | D,2 z2 A,,2 A,,2 | D,4 z4 |] %143

